packages/components/src/reaction_selection_menu/images/love.svg

<?xml version="1.0" encoding="UTF-8"?>
<svg width="40px" height="40px" viewBox="0 0 40 40" version="1.1" xmlns="http://www.w3.org/2000/svg" xmlns:xlink="http://www.w3.org/1999/xlink">
    <title>02 Icons/Reactions/Fantastic/40x40</title>
    <g id="02-Icons/Reactions/Fantastic/40x40" stroke="none" stroke-width="1" fill="none" fill-rule="evenodd">
        <g fill-rule="nonzero">
            <circle id="Oval" fill="#F2F4F4" cx="20" cy="20" r="20"></circle>
            <ellipse id="Oval" fill="#FCEDEE" cx="19.814" cy="21.6586" rx="12.5243" ry="12.3583"></ellipse>
            <path d="M19.8111,30.8185 C12.8562,30.8185 8.2864,26.6024 7.2984,21.4864 C7.2977,21.5443 7.2897,21.6004 7.2897,21.6585 C7.37929616,28.3214196 12.6697061,33.7478985 19.328203,34.0066324 C25.9867,34.2653663 31.6822431,29.2657764 32.2886,22.6299 C30.3174,26.1892 26.4753,30.8185 19.8111,30.8185 Z" id="Path" fill="#F8CDCF"></path>
            <path d="M10.7821,13.2262 C10.4658863,11.8165661 10.9075775,10.3440596 11.9474418,9.34119323 C12.9873061,8.33832686 14.4748414,7.95024787 15.8721,8.3173 C18.1594,9.1909 19.1714,11.7144 18.4756,14.7248 C17.7356,17.9257 14.4615,21.4416155 14.4615,21.4416155 C14.4615,21.4416155 9.6225,21.4636 6.7258,19.8485 C4.0014,18.3295 2.7917,15.8922 3.677,13.6352 C4.5623,11.3782 8.6637,10.3122 10.7821,13.2262 Z" id="Path" stroke="#61746E" stroke-width="1.5" fill="#EF7E84" stroke-linejoin="round"></path>
            <path d="M29.2179,13.2262 C29.5341137,11.8165661 29.0924225,10.3440596 28.0525582,9.34119323 C27.0126939,8.33832686 25.5251586,7.95024787 24.1279,8.3173 C21.8406,9.1909 20.8286,11.7144 21.5244,14.7248 C22.2644,17.9257 25.5385,21.4416155 25.5385,21.4416155 C25.5385,21.4416155 30.3775,21.4636 33.2742,19.8485 C35.9986,18.3295 37.2083,15.8922 36.323,13.6352 C35.4377,11.3782 31.3363,10.3122 29.2179,13.2262 Z" id="Path" stroke="#61746E" stroke-width="1.5" fill="#EF7E84" stroke-linejoin="round"></path>
            <path d="M24.3834,25.1833 C23.6809325,27.1205644 21.8733122,28.4378873 19.814,28.5133 C17.754669,28.4379416 15.9470216,27.1205989 15.2446,25.1833 L24.3834,25.1833 Z" id="Path" fill="#61746E"></path>
            <path d="M32.2631,20.2972 C32.3132834,20.7492635 32.3383002,21.2037596 32.3383002,21.6586 C32.2474809,28.5108468 26.6668487,34.018004 19.814,34.018004 C12.9611513,34.018004 7.38051909,28.5108468 7.2897,21.6586 C7.2897,21.1615392 7.31975843,20.6649333 7.3797,20.1715" id="Path" stroke="#61746E" stroke-width="1.5" stroke-linejoin="round"></path>
            <path d="M17.5565,9.5005 C19.1394175,9.21744912 20.7614535,9.23468208 22.338,9.5513" id="Path" stroke="#61746E" stroke-width="1.5" stroke-linejoin="round"></path>
        </g>
    </g>
</svg>

<svg xmlns="http://www.w3.org/2000/svg" width="40" height="40" viewBox="0 0 40 40">
    <g fill="none" fill-rule="evenodd">
        <g>
            <g transform="translate(-160 -76) translate(160 76)">
                <circle cx="20" cy="20" r="20" fill="#F2F4F4" fill-rule="nonzero"/>
                <ellipse cx="19.814" cy="21.659" fill="#FCEDEE" fill-rule="nonzero" rx="12.524" ry="12.358"/>
                <path fill="#F8CDCF" fill-rule="nonzero" d="M19.811 30.819c-6.955 0-11.525-4.217-12.513-9.333 0 .058-.008.114-.008.172.09 6.663 5.38 12.09 12.038 12.349 6.659.258 12.354-4.741 12.96-11.377-1.97 3.56-5.813 8.189-12.477 8.189z"/>
                <path fill="#EF7E84" fill-rule="nonzero" d="M10.782 13.226c-.316-1.41.126-2.882 1.165-3.885 1.04-1.003 2.528-1.39 3.925-1.024 2.287.874 3.3 3.397 2.604 6.408-.74 3.2-4.014 6.717-4.014 6.717s-4.84.022-7.736-1.593C4 18.329 2.792 15.892 3.677 13.635c.885-2.257 4.987-3.323 7.105-.409zM29.218 13.226c.316-1.41-.126-2.882-1.165-3.885-1.04-1.003-2.528-1.39-3.925-1.024-2.287.874-3.3 3.397-2.604 6.408.74 3.2 4.014 6.717 4.014 6.717s4.84.022 7.736-1.593c2.725-1.52 3.934-3.957 3.049-6.214-.885-2.257-4.987-3.323-7.105-.409z"/>
                <path fill="#757575" fill-rule="nonzero" d="M24.383 25.183c-.702 1.938-2.51 3.255-4.569 3.33-2.06-.075-3.867-1.392-4.57-3.33h9.14z"/>
                <path stroke="#757575" stroke-linejoin="round" stroke-width="1.5" d="M10.782 13.226c-.316-1.41.126-2.882 1.165-3.885 1.04-1.003 2.528-1.39 3.925-1.024 2.287.874 3.3 3.397 2.604 6.408-.74 3.2-4.014 6.717-4.014 6.717s-4.84.022-7.736-1.593C4 18.329 2.792 15.892 3.677 13.635c.885-2.257 4.987-3.323 7.105-.409zM29.218 13.226c.316-1.41-.126-2.882-1.165-3.885-1.04-1.003-2.528-1.39-3.925-1.024-2.287.874-3.3 3.397-2.604 6.408.74 3.2 4.014 6.717 4.014 6.717s4.84.022 7.736-1.593c2.725-1.52 3.934-3.957 3.049-6.214-.885-2.257-4.987-3.323-7.105-.409z"/>
                <path stroke="#757575" stroke-linecap="round" stroke-linejoin="round" stroke-width="1.5" d="M32.263 20.297c.05.452.075.907.075 1.362-.09 6.852-5.671 12.359-12.524 12.359-6.853 0-12.433-5.507-12.524-12.36 0-.496.03-.993.09-1.486M17.556 9.5c1.583-.283 3.205-.265 4.782.051"/>
            </g>
        </g>
    </g>
</svg>
